X:1
T:Title
%%score { ( 1 3 ) | 2 }
L:1/8
M:4/4
K:Ab
V:1 treble nm="Grand Piano"
V:3 treble 
V:2 treble 
V:1
 z4 z2[Q:1/4=96] A>B | c>c c>c c2 [CEA]>[DF] | [CE]>[CE] [CE]>[CE] [CE]2 A>F | G6 z2 | A6 z2 | %5
 c>c c>c c2 [CEA]>[DF] | [CE]>[CE] [CE]>[CE] [CE]2 E>F | G>_G =G>[FA] [GB]>[FA] [EG]>[DF] | %8
[M:3/4] E6 |[M:1/4] A>B |[M:4/4] c>c c>d e>e d>c | [Gd]6 z2 | [Bd]>[Bd] [Bd]>[Bd] d>B A>B | c6 z2 | %14
[M:3/4] A>A [GB]>[GB] [EAc]2 |[M:1/4] [CEA]>[CEA] | %16
[M:9/8] [B,FB]>[B,FB][Fc]- [Fc]/[Fc]/ [Fd]2- [Fd]c>B |[M:4/4] e6 z2 |[M:3/4] A6 |] %19
V:2
 z4 z2 [A,CE]>[A,DE] | [A,EA]>[A,EA] [A,EA]>[A,EA] [A,EA]2[K:bass] A,,>[A,,A,] | %2
 [A,,A,]>[A,,A,] [A,,A,]>[A,,A,] [A,,A,]2 z2 | z2 [E,B,]>[E,B,] [E,B,]2 z2 | %4
 z2 [A,,A,]>[A,,A,] [A,,A,]2 [A,CE]>[A,DE] | %5
 [A,EA]>[A,EA] [A,EA]>[A,EA] [A,EA]2[K:bass] A,,>[A,,A,] | %6
 [A,,A,]>[A,,A,] [A,,A,]>[A,,A,] [A,,A,]2 [A,C]>[A,C] | %7
 [E,B,E]>[E,=A,E] [E,B,E]>[E,B,] [B,,B,]>[B,,B,] [B,,B,]>[B,,_A,] |[M:3/4] [E,G,]2 E,>E, E,2 | %9
[M:1/4][K:treble] [A,C]>[A,D] |[M:4/4] [A,E]>[A,EA] [A,EA]>[B,EA] [CEA]>[CEA] [B,EG]>[A,EA] | %11
 [E,E]2 G,>B, E2 [E,E]>[E,E] | %12
 [E,E]>[E,E][K:treble] [G,E]>[A,E] [B,EG]>[K:bass][E,DE] [A,CE]>[E,DE] | %13
 [A,EA]2 [A,E]>[A,E] [A,E]2 [A,C]>[K:bass][A,C] |[M:3/4] [A,CE]>[A,CE] [E,E]>[E,E] A,2 | %15
[M:1/4] A,,>A,, |[M:9/8] D,>D,[C,=A,]- [C,A,]/[C,A,]/ [B,,B,]2- [B,,B,] z z | %17
[M:4/4] z2 [E,C]>[E,C] [E,B,]2 [E,D]>[E,D] |[M:3/4] [A,,A,]2 [A,,A,]>[A,,A,] [A,,A,]2 |] %19
V:3
 x8 | x8 | x8 | z2 D>D D2 B>G | z2 [CE]>[DF] [CE]2 A>B | x8 | x8 | x8 |[M:3/4] z2 G,>G, G,2 | %9
[M:1/4] x2 |[M:4/4] x8 | z2 E>E z2 [GB]>[Ac] | x8 | z2 A>A A2 E>E |[M:3/4] x6 |[M:1/4] x2 | %16
[M:9/8] x9 |[M:4/4] z2 A>A G2 [GB]>[Gc] |[M:3/4] C2 [CE]>[DF] [CE]2 |] %19

